proprietary/assets/icons/op-kantoor/document-met-tekst-csv.svg

<svg height="64" viewBox="0 0 64 64" width="64" xmlns="http://www.w3.org/2000/svg"><path d="m0 0h64v64h-64z" fill="none"/><path d="m50 7h-21.1714c-.5307 0-1.0395.2109-1.4145.5859l-14.8282 14.8282c-.375.375-.5859.8838-.5859 1.4145v31.1714c0 1.0996.8999 2 2 2h36c1.1046 0 2-.8955 2-2v-46c0-1.1045-.8954-2-2-2zm-3 45h-30v-26.7082l-3.1484-.9324c-.3411-.109-.2185-.3594-.2185-.3594h14.3669c.5522 0 1-.4478 1-1v-14.3659s.2509-.1096.3599.231l.9316 3.1349h16.7085z"/><path d="m41.9847 41 3.0153-10h-2.3508l-2.0688 7.2653-2.0827-7.2653h-2.4977l2.9835 10z"/><path d="m28.2445 34.0237c0 1.2723.6558 2.161 1.8961 2.5706l1.1935.398c1.1854.3953 1.2769.7104 1.2769 1.1122 0 .5887-.7443.9998-1.8099.9998-.8386 0-1.5076-.0625-2.3861-.2231l-.2871-.0528v1.9629l.2004.0342c.8491.1458 1.5281.1745 2.4146.1745 2.4818 0 4.0851-1.265 4.0851-3.2227 0-1.3149-.6918-2.1453-2.1771-2.6146l-1.1793-.3693c-.8652-.268-1.0391-.5693-1.0391-.9687 0-.5901.6013-.929 1.6493-.929.6927 0 1.239.0509 1.9492.181l.2653.0486.1554-1.8943-.2113-.0412c-.6438-.126-1.3404-.1898-2.071-.1898-2.3841 0-3.9249 1.1867-3.9249 3.0237z"/><path d="m24.6832 32.967c.6877 0 1.019.012 1.774.1389l.2612.0435.1744-1.918-.214-.0417c-.7207-.1402-1.2273-.1897-1.937-.1897-3.1281 0-5.149 2.0688-5.149 5.2703 0 2.9172 1.8832 4.7297 4.9145 4.7297.9819 0 1.3598-.0602 2.1887-.2324l.1931-.0402v-1.8704l-.2883.0523c-.7893.1417-1.214.1805-1.9761.1805-1.2449 0-2.6987-.7831-2.6987-2.9904-.0002-2.3094 1.424-3.1324 2.7572-3.1324z"/></svg>

<?xml version="1.0" encoding="utf-8"?>
<!-- Generator: Adobe Illustrator 19.1.0, SVG Export Plug-In . SVG Version: 6.00 Build 0)  -->
<svg version="1.2" baseProfile="tiny" xmlns="http://www.w3.org/2000/svg" xmlns:xlink="http://www.w3.org/1999/xlink" x="0px"
	 y="0px" width="64px" height="64px" viewBox="0 0 64 64" xml:space="preserve">
<g id="Box">
	<rect fill="none" width="64" height="64"/>
</g>
<g id="Icon">
	<g>
		<path d="M50,7H28.8286c-0.5307,0-1.0395,0.2109-1.4145,0.5859L12.5859,22.4141C12.2109,22.7891,12,23.2979,12,23.8286V55
			c0,1.0996,0.8999,2,2,2h36c1.1046,0,2-0.8955,2-2V9C52,7.8955,51.1046,7,50,7z M47,52H17V25.2918l-3.1484-0.9324
			C13.5105,24.2504,13.6331,24,13.6331,24H28c0.5522,0,1-0.4478,1-1V8.6341c0,0,0.2509-0.1096,0.3599,0.231L30.2915,12H47V52z"/>
		<polygon points="41.9847,41 45,31 42.6492,31 40.5804,38.2653 38.4977,31 36,31 38.9835,41 		"/>
		<path d="M28.2445,34.0237c0,1.2723,0.6558,2.161,1.8961,2.5706l1.1935,0.398c1.1854,0.3953,1.2769,0.7104,1.2769,1.1122
			c0,0.5887-0.7443,0.9998-1.8099,0.9998c-0.8386,0-1.5076-0.0625-2.3861-0.2231l-0.2871-0.0528v1.9629l0.2004,0.0342
			C29.1774,40.9713,29.8564,41,30.7429,41c2.4818,0,4.0851-1.265,4.0851-3.2227c0-1.3149-0.6918-2.1453-2.1771-2.6146
			l-1.1793-0.3693c-0.8652-0.268-1.0391-0.5693-1.0391-0.9687c0-0.5901,0.6013-0.929,1.6493-0.929
			c0.6927,0,1.239,0.0509,1.9492,0.181l0.2653,0.0486l0.1554-1.8943l-0.2113-0.0412C33.5966,31.0638,32.9,31,32.1694,31
			C29.7853,31,28.2445,32.1867,28.2445,34.0237z"/>
		<path d="M24.6832,32.967c0.6877,0,1.019,0.012,1.774,0.1389l0.2612,0.0435l0.1744-1.918l-0.214-0.0417
			C25.9581,31.0495,25.4515,31,24.7418,31c-3.1281,0-5.149,2.0688-5.149,5.2703c0,2.9172,1.8832,4.7297,4.9145,4.7297
			c0.9819,0,1.3598-0.0602,2.1887-0.2324l0.1931-0.0402v-1.8704l-0.2883,0.0523c-0.7893,0.1417-1.214,0.1805-1.9761,0.1805
			c-1.2449,0-2.6987-0.7831-2.6987-2.9904C21.9258,33.79,23.35,32.967,24.6832,32.967z"/>
	</g>
</g>
</svg>
